X: 1
T: Half a Ton
C: Muriel Johnstone
R: strathspey
B:
Z: 2004 John Chambers <jc:trillian.mit.edu>
M: C
L: 1/8
K: D
G \
| "D"F<A A>B "(Bm)"d>e f<d | "Em"g>e "D"f>d "G"e>d "(A7)"B<d \
| "D"AB/c/ d>A "G"B<d "D"A>F |1 "Em"G<B "D"A>F "A7"E3 :|2 "Em"G<E "A7"A>F "D"D3 |]
g \
| "D"f<a d>f "G"g<b "(A7)"e>g | "D"f<a d>f "A7"ge cA \
| "D"d>A F<D "G"G>B e<g | "A7"f/g/a A>c "D"d3 |]
g \
| "D"f<a d>f "Em"g<b "(A7)"e>g | "D"f<a d>f "A7"ge cA \
| "D"f2  d<A "G"B>d g<b | "A7"f/g/a A>c "D"d3 |]
